Papirus-nordic/16x16/places/folder-publicshare.svg

<svg xmlns="http://www.w3.org/2000/svg" width="16" height="16">
 <defs>
  <style id="current-color-scheme" type="text/css">
   .ColorScheme-Text { color:#3b4252; } .ColorScheme-Highlight { color:#8293ab; }
  </style>
 </defs>
 <path style="fill:currentColor" class="ColorScheme-Text" d="M 6 2 C 4.3431 2 3 3.3432 3 5 C 3 6.6568 4.3431 8 6 8 C 7.6569 8 9 6.6568 9 5 C 9 3.3432 7.6569 2 6 2 z M 10.996094 3.9453125 L 11 3.9492188 C 10.61172 3.9492188 10.246706 4.03852 9.9160156 4.1875 C 9.9706156 4.44955 10 4.7205869 10 4.9980469 C 10 6.1001469 9.5457862 7.102225 8.8164062 7.828125 C 9.2764062 8.528125 10.076094 8.9980469 10.996094 8.9980469 C 12.428794 8.9980469 13.589844 7.8677562 13.589844 6.4726562 C 13.589844 5.0775563 12.428794 3.9453125 10.996094 3.9453125 z M 6 9.9960938 C -0.0002 9.9994938 1.1555965e-33 14 0 14 L 0 15 L 12 15 L 12 14 C 12 14 12 9.99 6 10 L 6 9.9960938 z M 11 9.9980469 L 11 10 C 10.8039 10 10.628286 10.012584 10.447266 10.021484 C 11.144826 10.421144 11.676381 10.898558 12.050781 11.398438 C 12.990781 12.658437 13 13.998047 13 13.998047 L 16 13.998047 L 16 12.998047 C 16 12.998047 16 9.9980469 11 9.9980469 z"/>
</svg>

<svg xmlns="http://www.w3.org/2000/svg" width="16" height="16"><defs><style id="current-color-scheme" type="text/css"></style></defs><path d="M6 2a3 3 0 1 0 0 6 3 3 0 0 0 0-6zm4.996 1.945L11 3.95c-.388 0-.753.09-1.084.239a3.97 3.97 0 0 1-1.1 3.64 2.6 2.6 0 0 0 2.18 1.17c1.433 0 2.594-1.13 2.594-2.525s-1.161-2.528-2.594-2.528zM6 9.996C0 10 0 14 0 14v1h12v-1s0-4.01-6-4v-.004zm5 .002V10c-.196 0-.372.013-.553.021.698.4 1.23.878 1.604 1.377.94 1.26.949 2.6.949 2.6h3v-1s0-3-5-3z" fill="currentColor" color="#3b4252"/></svg>
